!!!ONB: MCCC : IWM0409_03 : Extracted Monophonic Melody
!!!COM: Mozart, Wolfgang Amadeus
!!!OPR: Piano Sonata No.9
!!!OMV: 3
!!!SCT: K.311 ; K⁶.284c ; Op.4 No.2
!!!ODT: 1777///
**kern
*thru
*staff1
*clefG2
*k[f#c#]
*D:
*M6/8
*MM120
4aa
8ff#
=1
8dd
8cc#
8dd
8dd
8cc#
8dd
=2
4ff#
8ee
4gg
8ee
=3
8cc#
8b
8cc#
8a
8ee
8aa
=4
4gg
8ff#
4ff#
8gg
=5
16bb
16aa
16gg
16ff#
16ee
16dd
4ff#
8gg
=6
16bb
16aa
16gg
16ff#
16ee
16dd
4bb
8ccc#
=7
16ddd
16ccc#
16bb
16aa
16gg
16ff#
16bb
16aa
16gg
16ff#
16ee
16dd
=8
8aa
8r
8r
4aa
8ff#
=9
8dd
8cc#
8dd
8dd
8cc#
8dd
=10
4ff#
8ee
4gg
8ee
=11
8cc#
8b
8cc#
8a
8ee
8aa
=12
4gg
8ff#
4ff#
8gg
=13
16bb
16aa
16gg
16ff#
16ee
16dd
4bb
8ccc#
=14
16eee
16ddd
16ccc#
16bb
16aa
16gg
16ccc#
16bb
16aa
16gg
16ff#
16ee
=15
16bb
16aa
16gg
16ff#
16ee
16dd
16aa
16gg
16ff#
16ee
16dd
16cc#
=16
8dd
8r
16d
16f#
8a
8r
16f#
16a
=17
8dd
8r
16a
16dd
8ff#
8r
16dd
16ff#
=18
8aa
8r
8r
4r
8r
=19
4aa[
16aa]
16bb
4dd
8cc#
=20
8dd
8ddd
8ccc#
8bb
8aa
8gg#
=21
4aa
16aa
16bb
4dd
8cc#
=22
8dd
8ddd
8ccc#
8bb
8aa
8gg#
=23
4aa
16aa
16bb
4dd
8cc#
=24
8dd
8r
8r
4.d
=25
4.e
4.a
=26
8f#
8r
8r
8r
8d
8d
=27
4d
8d
4d
8d
=28
4c#
8r
[4.aa
=29
8aa]
8ccc#
8bb
8aa
8gg#
8ff#
=30
4.ee
8dd
8B
8B
=31
4B
8B
4A
8A
=32
4G#
8r
[4.ddd
=33
16ddd]
16ccc#
16bb
16aa
16gg#
16ff#
16ee
16ff#
16ee
16dd
16cc#
16b
=34
16cc#
16ee
16ff#
16gg#
16aa
16bb
16ccc#
16ddd
16eee
16ccc#
16bb
16aa
=35
16ddd
16ccc#
16bb
16aa
16gg#
16ff#
16ee
16ff#
16ee
16dd
16cc#
16b
=36
16cc#
16ee
16ff#
16gg#
16aa
16bb
16ccc#
16ddd
16eee
16ccc#
16bb
16aa
=37
16ddd
16ccc#
16bb
16aa
16gg#
16ff#
16ee
16ff#
16ee
16dd
16cc#
16b
=38
16cc#
16ee
16ff#
16gg#
16aa
16bb
16ccc#
16bb
16aa
16gg#
16ff#
16ee
=39
16ff#
16ee
16dd
16cc#
16b
16a
16dd
16cc#
16b
16a
16g#
16f#
=40
8e
8ee
8ee
8ee
8r
8r
=41
4.cc#
8b
8cc#
8b
=42
[2.a
=43
4a]
8cc#
4dd
8ff#
=44
4ee
8dd
4cc#
8r
=45
4.b[
8b]
8cc#
8b
=46
4.b[
8b]
8cc#
8dd
=47
8ee
8aa
8gg#
8ff#
8ee
8dd
=48
4cc#
16dd
16cc#
8b
8r
8r
=49
4.cc#
8b
8cc#
8b
=50
2.a[
=51
4a]
8a#
4b
8ff#
=52
4ee
8dd
4cc#
8r
=53
8b
8bb
8bb
8bb
8bb
8bb
=54
8bb
8ee
8eee
8eee
8aa
8aa
=55
8aa
8ff#
8ee
8dd
8cc#
8b
=56
4.a
4.ccc#
=57
16ddd
16ccc#
16bb
16aa
8gg#
16bb
16aa
16gg#
16ff#
16ee
16dd
=58
8cc#
8ee
8aa
8ccc#
8eee
8r
=59
16ddd
16ccc#
16bb
16aa
8gg#
16bb
16aa
16gg#
16ff#
16ee
16dd
=60
8cc#
8ee
8aa
8ccc#
8eee
8r
=61
8r
8ee#
8ff#
8r
8aa
8ff#
=62
8r
8dd#
8ee
8r
8ff#
8dd
=63
8r
8b#
8cc#
8r
8dd
8b
=64
4.a
4.ccc#
=65
16ddd
16ccc#
16bb
16aa
8gg#
16bb
16aa
16gg#
16ff#
16ee
16dd
=66
8cc#
8ee
8aa
8ccc#
8eee
8r
=67
16ddd
16ccc#
16bb
16aa
8gg#
16bb
16aa
16gg#
16ff#
16ee
16dd
=68
8cc#
8ee
8aa
8ccc#
8eee
8r
=69
8r
8ee#
8ff#
8r
8aa
8ff#
=70
8r
8dd#
8ee
8r
8ff#
8dd
=71
8r
8b#
8cc#
8r
8dd
8b
=72
8r
8ee#
8ff#
8r
8aa
8ff#
=73
8r
8dd#
8ee
8r
8ff#
8dd
=74
8r
8b#
8cc#
8r
8dd
8b
=75
8a
8r
8r
4.aa
=76
4bb
8ddd
4aa
8gg#
=77
8aa
8r
8r
8aa
8aa
8aa
=78
4bb
8ddd
4aa
8gg#
=79
8aa
8cc#
8dd
8ee
8ff#
8gg#
=80
8aa
8cc#
8dd
8ee
8ff#
8gg#
=81
8aa
8r
8r
8r
8r
8dd
=82
8cc#
8r
8r
8r
8r
8dd
=83
8r
8b#
8cc#
8r
8cc#
8dd
=84
8r
8dd#
8ee
8r
8ee#
8ff#
=85
8r
8ff#
8gg
4r
8r
=86
4r
8r
4aa
8ff#
=87
8dd
8cc#
8dd
8dd
8cc#
8dd
=88
4ff#
8ee
4gg
8ee
=89
8cc#
8b
8cc#
8a
8ee
8aa
=90
4gg
8ff#
4ff#
8gg
=91
16bb
16aa
16gg
16ff#
16ee
16dd
4ff#
8gg
=92
16bb
16aa
16gg
16ff#
16ee
16dd
4bb
8ccc#
=93
16ddd
16ccc#
16bb
16aa
16gg
16ff#
16bb
16aa
16gg
16ff#
16ee
16dd
=94
8aa
8r
8r
4aa
8ff#
=95
8dd
8cc#
8dd
8dd
8cc#
8dd
=96
4dd#
8ee
4gg
8ee
=97
8cc#
8b
8cc#
8a
8ee
8aa
=98
4gg
8ff#
4ff#
8gg
=99
16bb
16aa
16gg
16ff#
16ee
16dd
4bb
8ccc#
=100
16eee
16ddd
16ccc#
16bb
16aa
16gg
16ccc#
16bb
16aa
16gg
16ff#
16ee
=101
16bb
16aa
16gg
16ff#
16ee
16dd
16aa
16gg
16ff#
16ee
16dd
16cc#
=102
8dd
8r
16f#
16a
8dd
8r
16a
16dd
=103
8ff#
8r
16dd
16ff#
8aa
8r
16ff#
16aa
=104
8ccc
8r
8r
4r
8r
=105
4dd[
16dd]
16ee
4g
8f#
=106
8g
8gg
8ff#
8ee
8dd
8cc#
=107
4dd
16dd
16ee
4g
8f#
=108
8g
8gg
8ff#
8ee
8dd
8cc#
=109
4dd
16dd
16ee
4g
8f#
=110
8g
8r
8r
4.g
=111
4.a
4.dd
=112
8b
8r
8r
4.e
=113
4.f#
4.b
=114
8g
8r
8r
4.d
=115
4.e
4.a
=116
8f#
8r
8r
4.cc#
=117
4.dd
4.ee#
=118
8ff#
8r
8r
4r
8r
=119
8r
8ff#
8ff#
8gg
8ff#
8ff#
=120
8gg
8ff#
8ff#
4ff#
16gg
16aa
=121
8bb
8ee
8ee
8ff#
8ee
8ee
=122
8ee
8dd
8dd
4dd
16ee
16ff#
=123
8gg
8cc
8cc
4cc
8gg
=124
8ff#
8b
8b
4b
[8ff#
=125
8ff#]
8ee
8cc#
8ee
8dd
8b
=126
16a#
16b
16cc#
16dd
16cc#
16dd
8cc#
8r
8r
=127
16dd
16bb
16dd
16bb
16dd
16bb
16dd
16bb
16dd
16bb
16dd
16bb
=128
16cc#
16bb
16cc#
16bb
16cc#
16bb
16cc#
16aa
16cc#
16aa
16cc#
16aa
=129
16dd#
16aa
16ee
16gg
16ee
16gg
16b
16gg
16b
16gg
16cc#
16gg
=130
16a
16gg
16a
16gg
16a
16gg
16a
16ff#
16a
16ff#
16a
16ff#
=131
16b
16ff#
16b
16ee
16b
16dd#
16ee
16bb
16ee
16aa
16ee
16gg#
=132
16ee
16aa
16dd
16aa
16cc#
16aa
16gg
16aa#
16ff#
16bb
16ee
16ccc#
=133
16dd
16ccc#
16dd
16ccc#
16dd
16bb
16cc#
16bb
16cc#
16bb
16cc#
16aa
=134
16b
16aa
16b
16aa
16b
16gg
16a
16gg
16a
16gg
16a
16ff#
=135
16g
16ff#
16g
16ff#
16g
16ee
16f#
16ee
16f#
16ee
16f#
16dd
=136
16e
16dd
16e
16dd
16e
16cc
16d
16cc
16d
16cc
16d
16b
=137
16e
16b
16a
16g#
16a
16b
16cc
16dd
16ee
16cc
16b
16a
=138
4.g
8f#
8r
8r
=139
8r
8dd
8dd
8dd
8dd
8dd
=140
4.dd
8f#
8r
8r
=141
8r
8g
8b
8dd
8gg
8bb
=142
4.ddd
8ccc
8r
8r
=143
8r
16bb
16ccc
16ddd
16bb
8gg
16gg
16aa
16bb
16gg
=144
8ee
16ee
16ff#
16gg
16ee
8cc#
16cc#
16dd
16ee
16cc#
=145
8dd
8ee
8ff#
8gg
8ee
8cc
=146
4.b
8a
8r
8r
=147
8r
8dd
8dd
8ee
8dd
8dd
=148
4.dd
8f#
8r
8r
=149
16r
16g
16b
16g
16dd
16b
16gg
16dd
16bb
16gg
16ddd
16ddd
=150
[4ddd
16ddd]
16ccc#
8ccc
8r
8r
=151
8r
16bb
16ccc
16ddd
16bb
8gg
16gg
16aa
16bb
16gg
=152
8ee
16ee
16ff#
16gg
16ee
8cc#
16cc#
16dd
16ee
16cc#
=153
8dd
8cc#
8cc
8b
8cc
8a
=154
8g
8r
16B
16d
8g
8r
16d
16g
=155
8b
8r
16g
16b
8dd
8r
16b
16dd
=156
8gg
8r
8r
4r
8r
=157
4bb[
16bb]
16ccc
4ee
8dd#
=158
8ee
8eee
8ddd
8ccc
8bb
8aa#
=159
4bb
16bb
16ccc
4ee
8dd#
=160
8ee
8eee
8ddd
8ccc
8bb
8bb-
=161
4aa
16aa
16bb
4dd
8cc#
=162
8dd
8ddd
8ccc#
8bb
8aa
8gg#
=163
4aa
16aa
16bb
4dd
8cc#
=164
8dd
8ff#
8ee
8dd
8cc#
8b
=165
4ee
16ee
16ff#
4a
8g#
=166
8a
8aa
8gg#
8ff#
8ee
8dd#
=167
4ee
16ee
16ff#
4a
8g#
=168
16a
16e
16c#
16e
16a
16e
16a
16e
16c#
16e
16a
16e
=169
16b
16e
16d
16e
16b
16e
16b
16e
16d
16e
16b
16e
=170
16cc#
16g
16e
16g
16cc#
16g
16dd
16a
16f#
16a
16dd
16a
=171
16ee
16cc#
16a
16cc#
16ee
16cc#
16ff#
16dd
16a
16dd
16ff#
16dd
=172
2.gg[
=173
*M22/8
8.gg]
16ee
8.ccc#
16aa
4.eee
8ddd
8ccc#
8bb
8aa
8gg#
24aa
24aa#
24bb
24aa
24gg
24ff#
24aa
24gg
24bb
24aa
24gg
24ff#
24ee
24ff#
24gg
24ff#
24aa
24gg
24ff#
24ee
24dd
24cc#
24b
24a
4g
=174
*M3/8
16f#
16g
8bb
8r
=175
*M10/8
16aa
16gg
8r
16ff#
16ee
8r
8ff#
16.aa
32gg
8gg
16gg
16gg#
8bb
8aa
=176
*M6/8
4aa
8ff#
=177
8dd
8cc#
8dd
8dd
8cc#
8dd
=178
4ff#
8ee
4gg
8ee
=179
8cc#
8b
8cc#
8a
8ee
8aa
=180
4gg
8ff#
4ff#
8gg
=181
16bb
16aa
16gg
16ff#
16ee
16dd
4ff#
8gg
=182
16bb
16aa
16gg
16ff#
16ee
16dd
4bb
8ccc#
=183
16ddd
16ccc#
16bb
16aa
16gg
16ff#
16bb
16aa
16gg
16ff#
16ee
16dd
=184
8aa
8r
8r
4a
8f#
=185
8d
8c#
8d
8d
8c#
8d
=186
4f#
8e
4g
8e
=187
8c#
8B
8c#
8A
8e
8a
=188
4g
8f#
4ff#
8gg
=189
16bb
16aa
16gg
16ff#
16ee
16dd
4bb
8ccc#
=190
16eee
16ddd
16ccc#
16bb
16aa
16gg
16ccc#
16bb
16aa
16gg
16ff#
16ee
=191
16bb
16aa
16gg
16ff#
16ee
16dd
16aa
16gg
16ff#
16ee
16dd
16cc#
=192
8dd
8r
8r
8r
8d
8d
=193
4d
8d
4d
8d
=194
4c
8r
[4.aa
=195
8aa]
8ccc
8bb
8aa
8gg
8ff#
=196
4.aa
8gg
8B
8B
=197
4A
8A
4G
8G
=198
4F#
8r
[4.ccc
=199
16ccc]
16bb
16aa
16gg
16ff#
16ee
16dd
16ee
16dd
16cc
16b
16a
=200
16b
16dd
16ee
16ff#
16gg
16aa
16bb
16ccc
16ddd
16bb
16bb
16gg
=201
16ccc
16bb
16aa
16gg
16ff#
16ee
16dd
16ee
16dd
16cc
16b
16a
=202
16b
16dd
16ee
16ff#
16gg
16aa
16bb
16ccc
16ddd
16bb
16aa
16gg
=203
16aa
16gg
16ff#
16ee
16dd#
16cc
16b
16cc
16b
16a
16g
16f#
=204
16g
16b
16cc#
16dd#
16ee
16ff#
16gg
16aa
16bb
16gg
16ff#
16ee
=205
16gg
16ff#
16ee
16dd
16cc#
16b
16a
16b
16a
16g
16f#
16e
=206
16f#
16a
16b
16cc#
16dd
16ee
16ff#
16gg
16aa
16bb
16ccc#
16ddd
=207
16bb
16aa
16gg
16ff#
16ee
16dd
16gg
16ff#
16ee
16dd
16cc#
16b
=208
8a
8aa
8aa
8aa
8r
8r
=209
4.ff#
8ee
8ff#
8ee
=210
[2.dd
=211
4dd]
8ff#
4gg
8bb
=212
4aa
8gg
4ff#
8r
=213
4.ee[
8ee]
8ff#
8ee
=214
4.ee[
8ee]
8ff#
8gg
=215
8aa
8ddd
8ccc#
8bb
8aa
8gg
=216
4ff#
16gg
16ff#
8ee
8r
8r
=217
4.ff#
8ee
8ff#
8ee
=218
2.dd[
=219
4dd]
8dd#
4ee
8bb
=220
4aa
8gg
4ff#
8r
=221
8ee
8eee
8eee
8eee
8eee
8eee
=222
8eee
8aa
8aa
8aa
8ddd
8ddd
=223
8ddd
8bb
8aa
8gg
8ff#
8ee
=224
4.dd
4.ff#
=225
16gg
16ff#
16ee
16dd
8cc#
16ee
16dd
16cc#
16b
16a
16g
=226
8f#
8a
8dd
8ff#
8aa
8r
=227
16gg
16ff#
16ee
16dd
8cc#
16ee
16dd
16cc#
16b
16a
16g
=228
8f#
8a
8dd
8ff#
8aa
8r
=229
8r
8aa#
8bb
8r
8ddd
8bb
=230
8r
8gg#
8aa
8r
8bb
8gg
=231
8r
8ee#
8ff#
8r
8gg
8ee
=232
4.dd
4.ff#
=233
16gg
16ff#
16ee
16dd
8cc#
16ee
16dd
16cc#
16b
16a
16g
=234
8f#
8a
8dd
8ff#
8aa
8r
=235
16gg
16ff#
16ee
16dd
8cc#
16ee
16dd
16cc#
16b
16a
16g
=236
8f#
8a
8dd
8ff#
8aa
8r
=237
8r
8aa#
8bb
8r
8ddd
8bb
=238
8r
8gg#
8aa
8r
8bb
8gg
=239
8r
8ee#
8ff#
8r
8gg
8ee
=240
8r
8aa#
8bb
8r
8ddd
8bb
=241
8r
8gg#
8aa
8r
8bb
8gg
=242
8r
8ee#
8ff#
8r
8gg
8ee
=243
8dd
8r
8r
4.dd
=244
4ee
8gg
4dd
8cc#
=245
8dd
8r
8r
8dd
8dd
8dd
=246
4ee
8gg
4dd
8cc#
=247
8dd
8f#
8a
8b
8cc#
8dd
=248
8ee
8a
8b
8cc#
8dd
8ee
=249
8ff#
8a
8cc#
8dd
8ee
8ff#
=250
8gg
8cc#
8dd
8ee
8ff#
8gg
=251
8aa
8r
8r
4aa
8ff#
=252
8dd
8cc#
8dd
8dd
8cc#
8dd
=253
4ff#
8ee
4gg
8ee
=254
8cc#
8b
8cc#
8a
8ee
8aa
=255
4gg
8ff#
4ff#
8gg
=256
16bb
16aa
16gg
16ff#
16ee
16dd
4bb
8ccc#
=257
16eee
16ddd
16ccc#
16bb
16aa
16gg
16ccc#
16bb
16aa
16gg
16ff#
16ee
=258
16bb
16aa
16gg
16ff#
16ee
16dd
16aa
16gg
16ff#
16ee
16dd
16cc#
=259
8dd
8r
16d
16f#
8a
8r
16f#
16a
=260
8dd
8r
16a
16dd
8ff#
8r
16dd
16ff#
=261
8aa
8r
8r
4r
8r
=262
4aa[
16aa]
16bb
4dd
8cc#
=263
8dd
8ddd
8ccc#
8bb
8aa
8gg#
=264
4aa
16aa
16bb
4dd
8cc#
=265
8dd
8ddd
8ccc#
8bb
8aa
8gg#
=266
4aa
16aa
16bb
4dd
8cc#
=267
8dd
8r
8r
4.d
=268
4.e
4.a
=269
8f#
8r
8r
16bb
16ddd
16bb
16ddd
16bb
16ddd
=270
16bb
16ddd
16bb
16ddd
16bb
16ddd
16gg
16ccc#
16gg
16ccc#
16gg
16ccc#
=271
8ddd
8r
8r
8aa
8r
8r
=272
8ff#
8r
8r
4r
8r
==
*-
